build/img/icon-calendar.svg

<svg width="24" height="24" viewBox="0 0 24 24" xmlns="http://www.w3.org/2000/svg">
<path fill-rule="evenodd" clip-rule="evenodd" d="M9 3V2H7V3V4H5C3.34315 4 2 5.34315 2 7V11V19C2 20.6569 3.34315 22 5 22H19C20.6569 22 22 20.6569 22 19V11V7C22 5.34315 20.6569 4 19 4H17V3V2H15V3V4H9V3ZM7 6V7V8H9V7V6H15V7V8H17V7V6H19C19.5523 6 20 6.44772 20 7V10H4V7C4 6.44772 4.44772 6 5 6H7ZM4 12H20V19C20 19.5523 19.5523 20 19 20H5C4.44772 20 4 19.5523 4 19V12Z" fill="currentColor"/>
</svg>

<svg width="24" height="24" viewBox="0 0 24 24" xmlns="http://www.w3.org/2000/svg"><path fill-rule="evenodd" clip-rule="evenodd" d="M9 3V2H7v2H5a3 3 0 00-3 3v12a3 3 0 003 3h14a3 3 0 003-3V7a3 3 0 00-3-3h-2V2h-2v2H9V3zM7 6v2h2V6h6v2h2V6h2a1 1 0 011 1v3H4V7a1 1 0 011-1h2zm-3 6h16v7a1 1 0 01-1 1H5a1 1 0 01-1-1v-7z" fill="currentColor"/></svg>
